symbols/web/shop_two/materialsymbolsoutlined/shop_two_wght500gradN25fill1_24px.svg

<svg xmlns="http://www.w3.org/2000/svg" height="24" width="24"><path d="m12.025 15 5.1-3.25-5.1-3.325Zm7.45 7.15h-16.2q-.9 0-1.525-.638-.625-.637-.625-1.512V9.25h2.15V20h16.2Zm-12.3-3.9q-.9 0-1.525-.625Q5.025 17 5.025 16.1V5.2H9.95V3.35q0-.9.625-1.525Q11.2 1.2 12.1 1.2h3.7q.9 0 1.525.625.625.625.625 1.525V5.2h4.925v10.9q0 .9-.625 1.525-.625.625-1.525.625ZM12.1 5.2h3.7V3.35h-3.7Z"/></svg>

<svg xmlns="http://www.w3.org/2000/svg" height="24" width="24"><path d="M12.025 15 17.125 11.75 12.025 8.425ZM19.475 22.15H3.275Q2.375 22.15 1.75 21.512Q1.125 20.875 1.125 20V9.25H3.275V20Q3.275 20 3.275 20Q3.275 20 3.275 20H19.475ZM7.175 18.25Q6.275 18.25 5.65 17.625Q5.025 17 5.025 16.1V5.2H9.95V3.35Q9.95 2.45 10.575 1.825Q11.2 1.2 12.1 1.2H15.8Q16.7 1.2 17.325 1.825Q17.95 2.45 17.95 3.35V5.2H22.875V16.1Q22.875 17 22.25 17.625Q21.625 18.25 20.725 18.25ZM12.1 5.2H15.8V3.35Q15.8 3.35 15.8 3.35Q15.8 3.35 15.8 3.35H12.1Q12.1 3.35 12.1 3.35Q12.1 3.35 12.1 3.35Z"/></svg>
